svgs/sharp-light/grid-2-plus.svg

<svg xmlns="http://www.w3.org/2000/svg" viewBox="0 0 512 512"><!--! Font Awesome Pro 6.6.0 by @fontawesome - https://fontawesome.com License - https://fontawesome.com/license (Commercial License) Copyright 2024 Fonticons, Inc. --><path d="M192 64L64 64l0 128 128 0 0-128zM64 32l128 0 32 0 0 32 0 128 0 32-32 0L64 224l-32 0 0-32L32 64l0-32 32 0zM192 320L64 320l0 128 128 0 0-128zM64 288l128 0 32 0 0 32 0 128 0 32-32 0L64 480l-32 0 0-32 0-128 0-32 32 0zM320 64l0 128 128 0 0-128L320 64zM288 32l32 0 128 0 32 0 0 32 0 128 0 32-32 0-128 0-32 0 0-32 0-128 0-32zM400 272l0 16 0 80 80 0 16 0 0 32-16 0-80 0 0 80 0 16-32 0 0-16 0-80-80 0-16 0 0-32 16 0 80 0 0-80 0-16 32 0z"/></svg>

<svg xmlns="http://www.w3.org/2000/svg" viewBox="0 0 512 512"><!--! Font Awesome Pro 6.4.2 by @fontawesome - https://fontawesome.com License - https://fontawesome.com/license (Commercial License) Copyright 2023 Fonticons, Inc. --><path d="M192 64H64V192H192V64zM64 32H192h32V64 192v32H192 64 32V192 64 32H64zM192 320H64V448H192V320zM64 288H192h32v32V448v32H192 64 32V448 320 288H64zM320 64V192H448V64H320zM288 32h32H448h32V64 192v32H448 320 288V192 64 32zM400 272v16 80h80 16v32H480 400v80 16H368V480 400H288 272V368h16 80V288 272h32z"/></svg>
